X: 133
T: Orleans Baffled
M:6/4
L:1/8
Q:160
S:Playford
O:Manuscript
A:English
K:D
d4 a4 f4|g2 b4 B2 c2 A2|d2 cd e2 de f2 ef|g2 fg e2 a2 f2 d2|A4 e4 c4| d2 f4F2 ^G2 E2|A2 ^GA B2 AB c2 Bc| d2 Bc B2 e2 c2 A2| A2 d2 d2 =c2 B2 A2 | d2 e2 e2 d2 c2 A2|d2 cd e2 A2 f2 A2|g2 B2 e2 c2 B4:|

